swiss/communes/5096.svg

<svg xmlns="http://www.w3.org/2000/svg" xmlns:xlink="http://www.w3.org/1999/xlink" height="763" width="603" version="1.0"><defs><radialGradient xlink:href="#a" id="b" gradientUnits="userSpaceOnUse" gradientTransform="matrix(1.21503 0 0 1.26667 -839.192 -490.49)" cx="858.042" cy="579.933" fx="858.042" fy="579.933" r="300"/><linearGradient id="a"><stop style="stop-color:#fff;stop-opacity:.3137255" offset="0"/><stop offset=".19" style="stop-color:#fff;stop-opacity:.25098041"/><stop style="stop-color:#6b6b6b;stop-opacity:.1254902" offset=".6"/><stop style="stop-color:#000;stop-opacity:.1254902" offset="1"/></linearGradient></defs><g style="opacity:1"><path d="M1.5 1.635v458.868c0 166.311 134.314 301.132 300 301.132s300-134.821 300-301.132V1.635H1.5z" style="opacity:1;fill:#2b5df2"/></g><g style="opacity:1"><path style="fill:#5ab532;stroke:#000;stroke-width:3;stroke-linecap:round;stroke-linejoin:round" d="M175.99 642.534c-18.865 0-28.49 15.399-28.49 31.569s20.02 87.396 154 87.396l-89.705-107.8s-10.779-11.165-35.805-11.165zm251.02 0c-25.025 0-35.806 11.165-35.806 11.165l-89.704 107.8c133.98 0 154-71.226 154-87.396s-9.625-31.569-28.49-31.569z"/><path style="fill:#5ab532;stroke:#000;stroke-width:3;stroke-linecap:round;stroke-linejoin:round" d="M237.59 619.819c-21.946 0-30.8 24.641-30.8 44.661 0 34.649 43.89 97.02 94.71 97.02l-27.335-123.2c0-.001-14.63-18.481-36.575-18.481zm127.82 0c-21.945 0-36.576 18.48-36.576 18.48l-27.334 123.2c50.82 0 94.71-62.37 94.71-97.02 0-20.02-8.855-44.66-30.8-44.66z"/><path style="fill:#5ab532;stroke:#000;stroke-width:3;stroke-linecap:round;stroke-linejoin:round" d="M301.5 605.959c-31.57 0-41.58 40.81-41.58 68.145 0 44.276 34.266 87.396 41.58 87.396s41.58-43.119 41.58-87.396c0-27.335-10.011-68.145-41.58-68.145z"/><path d="M91.5 230.135s24.681 42.164 51.5 51.5l-15.25 9.75s-32.25-1.5-36.25-61.25z" style="fill:#fff;stroke:#000;stroke-width:3;stroke-linecap:round;stroke-linejoin:round"/><path d="M164 280.214c-23.464-41.066-44.167-50.579-44.167-50.579.771 22.557 9.125 40.653 16.031 51.902 0 0-10.198 3.931-17.031 10.764-2.958 2.958-4.254 9.517-10.583 17.583-6.375 8.125-11.25 19-12.75 28s.449 22.514-6.5 39.5c-2.25 5.5-7.5 13.5-.25 17.5 0 0 4.75 22.75 11.5 22.75 4 0 5.563-2.75 5.563-2.75s6.688 6.75 15.021 0c8.333-6.75 5.861-22.68 14.5-32.417 7.219-8.135 21.369-6.975 31.188-15.854 0 0 12.979 12.271 25.979 43.521s13.775 25.331 15.917 34.583c.503 2.175 1.406 5.478 2.764 9.438 0 0-32.431 12.229-52.431 19.979s-18.25 14.5-16.25 27.5 21.917 79.584 28.333 86.001C177.25 594.052 193 599.469 193 599.469c4.667 4.666 11.5 6.166 11.5 6.166l-1.167-22.833-11.333-1.5c-9.333 0-7.667-5.166-7.667-5.166s-2.708 1.374-7.333-.876-10.75-41.375-13.625-58.5 6-19.375 9.75-19.375c15.893 0 39.375 0 51.375-.75s8-6 8-6c15.125 15.125 13 34.5 11.75 38s6.5 15.25 9.5 29 4.5 23 1 29.5c-1.953 3.627-6.106 10.247-9.934 17.14-3.033 5.461-7.201 11.094-8.566 15.544 0 0 13.516 1.566 24.625 1.566l-1.375-11.5s5-16.5 12.375-12.375c0 0-1.625-35.375 1.875-67.125 1.613-14.633 3.438-26.239 3.813-35.92 0 0 54.604 5.171 79.271-4.163 18.5-7.001 20.875-11.751 22.594-13.688 0 0 .573 30.021 25.823 52.271 0 0-10.488 14.926-20.75 44-3 8.5-3.749 13.417-9.666 17.25-3.874 2.51-14.644 7.309-23.395 17.271-3.045 3.813-5.861 10.179-8.048 18.722l27.921-2.43.438-3.129v-8.184s13.5-19.5 18.75-9.75c0 0 12.5-30.75 24-48.25s16.083-20.749 16.083-22.916c0-2.167-7.507-17.775-4.208-58.584 0 0 7.792 34.093 25.875 53.25 1.942 2.058-1.313 7.902 3.084 13.791.678.908 4.464 27.875-1.459 42.459-7.182 17.683-20.904 31.268-30.636 46.448-2.973 4.637-7.854 9.813-9.781 14.909 0 0 5.208 5.892 29.875 7.559l1.333-11.333s2.168-29.833 17.834-17.833c0 0 6.976-44.476 17.667-73.5 2.81-7.626 4.833-10.334.166-15s-15.834-19.25-1.834-48.5 17.001-64.833 13.667-87.833c0 0 15 16.666 15 53.333s-13 40.877-13 61.667c0 13.833 7.083 38.083 12.583 48.583 0 0 13.5-22.5 13.5-48.583s-5-28.167-5-61.417c0-21.236-2.357-57.858-26.256-75.248-11.45-11.908-27.453-20.002-49.494-20.002-50.5 0-68.398 15.161-114.5 10-33.5-3.75-52.5-14.25-52.5-14.25s-65.999-55.926-108.5-71.171z" style="fill:#fff;stroke:#000;stroke-width:3;stroke-linecap:round;stroke-linejoin:round"/><path d="M105.813 414.885s1.021-7.084 5.354-13.917M166.521 366.614c4.463-4.036 8.031-10.146 9.646-20.146M145.167 294.302s-4.267-4.563-9.302-12.764M211.181 454.156c3.586 10.46 10.348 25.508 21.319 36.479M193 599.469s1-9.333-1-18.167M259.5 609.885s-11.034.696-14.684-5.61M379.427 476.614c.573-.646 1.073-.979 2.073-.979 4 0 20 5.5 44.875-2.75M270.25 466.635c6.2 7.817 7.75 16.507 7.313 27.83M426.375 472.885c1.125-13.916-10.209-25.584-16.542-29.75M170.5 292.302a273.414 273.414 0 0 0-6.5-12.088M129.833 250.968l14.334 24M351.503 607.337s.497 5.048 20.247 5.048M444.666 639.968s-18.233-1.779-21.366-11.223M110.833 356.968s1.5-10.167 5.667-16.833c4.167-6.666 10.5-6.5 11.667-10" style="fill:none;stroke:#000;stroke-width:3;stroke-linecap:round;stroke-linejoin:round"/><path d="M130.833 343.802s-3-1.833-6-1.833-6.845-1.191-6.845-3.845" style="fill:none;stroke:#000;stroke-width:3;stroke-linecap:round;stroke-linejoin:round"/><path d="M113.552 346.397s3.375-3.974 8.37-4.785" style="fill:none;stroke:#000;stroke-width:3;stroke-linecap:round;stroke-linejoin:round"/><path d="M164 280.214c42.5 15.245 108.5 71.171 108.5 71.171s.624.343 1.824.921c-45.436-66.422-99.321-80.186-116.933-82.977A233.052 233.052 0 0 1 164 280.214z"/><ellipse ry="5.437" rx="3.063" cy="343.688" cx="119.688" transform="rotate(-28.729 119.96 343.75)"/><path style="fill:#fcef3c;stroke:#000;stroke-width:2.79999995;stroke-linecap:round;stroke-linejoin:round" transform="translate(0 .135)" d="M106.039 136.191h49.206l-39.808 28.921 15.206 46.798-39.809-28.922-39.808 28.922 15.203-46.798-39.804-28.921h49.204l15.205-46.798 15.205 46.798zM301.5 44.726l15.205 46.799h49.204l-39.805 28.921 15.204 46.797-39.808-28.922-39.809 28.922 15.206-46.797-39.808-28.921h49.206L301.5 44.726zM512.166 89.393l15.205 46.798h49.204l-39.804 28.921 15.203 46.798-39.808-28.922-39.809 28.922 15.206-46.798-39.808-28.921h49.206l15.205-46.798z"/></g><g style="display:inline"><path style="fill:url(#b);fill-opacity:1" d="M1.5 1.5v458.868c0 166.31 134.315 301.132 300 301.132s300-134.821 300-301.132V1.5H1.5z"/></g><g style="display:inline"><path style="fill:none;fill-opacity:1;stroke:#000;stroke-width:3;stroke-miterlimit:4;stroke-dasharray:none;stroke-opacity:1" d="M1.5 1.5v458.868c0 166.31 134.315 301.132 300 301.132s300-134.821 300-301.132V1.5H1.5z"/></g></svg>

<?xml version="1.0" encoding="UTF-8" standalone="no"?>
<svg
   xmlns:dc="http://purl.org/dc/elements/1.1/"
   xmlns:cc="http://creativecommons.org/ns#"
   xmlns:rdf="http://www.w3.org/1999/02/22-rdf-syntax-ns#"
   xmlns:svg="http://www.w3.org/2000/svg"
   xmlns="http://www.w3.org/2000/svg"
   xmlns:xlink="http://www.w3.org/1999/xlink"
   xmlns:sodipodi="http://sodipodi.sourceforge.net/DTD/sodipodi-0.dtd"
   xmlns:inkscape="http://www.inkscape.org/namespaces/inkscape"
   height="763"
   width="603"
   version="1.0"
   id="svg20"
   sodipodi:version="0.32"
   inkscape:version="0.46"
   sodipodi:docname="BrioneSopraMinusio-coat_of_arms.svg"
   sodipodi:docbase="C:\Documents and Settings\Steve\Bureau\Blason Villages Suisse pour Wikipédia (par Delta-9)"
   inkscape:output_extension="org.inkscape.output.svg.inkscape">
  <metadata
     id="metadata31">
    <rdf:RDF>
      <cc:Work
         rdf:about="">
        <dc:format>image/svg+xml</dc:format>
        <dc:type
           rdf:resource="http://purl.org/dc/dcmitype/StillImage" />
        <dc:date>07-AUG-2006</dc:date>
        <dc:creator>
          <cc:Agent>
            <dc:title>Jérôme BLUM (wagner51)</dc:title>
          </cc:Agent>
        </dc:creator>
        <cc:license
           rdf:resource="http://creativecommons.org/licenses/GPL/2.0/" />
        <dc:coverage />
        <dc:description>Gabarit pour le Projet:Blasons de WIkipédia</dc:description>
        <dc:subject>
          <rdf:Bag>
            <rdf:li>blason suisse modèle gabarit projet blasons</rdf:li>
          </rdf:Bag>
        </dc:subject>
        <dc:language>fr</dc:language>
        <dc:title>Gabrit d'un blason suisse</dc:title>
      </cc:Work>
      <cc:License
         rdf:about="http://creativecommons.org/licenses/GPL/2.0/">
        <cc:permits
           rdf:resource="http://web.resource.org/cc/Reproduction" />
        <cc:permits
           rdf:resource="http://web.resource.org/cc/Distribution" />
        <cc:requires
           rdf:resource="http://web.resource.org/cc/Notice" />
        <cc:permits
           rdf:resource="http://web.resource.org/cc/DerivativeWorks" />
        <cc:requires
           rdf:resource="http://web.resource.org/cc/ShareAlike" />
        <cc:requires
           rdf:resource="http://web.resource.org/cc/SourceCode" />
      </cc:License>
    </rdf:RDF>
  </metadata>
  <defs
     id="defs29"><inkscape:perspective
   sodipodi:type="inkscape:persp3d"
   inkscape:vp_x="0 : 381.5 : 1"
   inkscape:vp_y="0 : 1000 : 0"
   inkscape:vp_z="603 : 381.5 : 1"
   inkscape:persp3d-origin="301.5 : 254.33333 : 1"
   id="perspective28" />
<linearGradient
   id="linearGradient2893">
  <stop
     style="stop-color:#ffffff;stop-opacity:0.3137255;"
     offset="0"
     id="stop2895" />
  <stop
     id="stop2897"
     offset="0.19"
     style="stop-color:#ffffff;stop-opacity:0.25098041;" />
  <stop
     style="stop-color:#6b6b6b;stop-opacity:0.1254902;"
     offset="0.60000002"
     id="stop2901" />
  <stop
     style="stop-color:#000000;stop-opacity:0.1254902;"
     offset="1"
     id="stop2899" />
</linearGradient>
<linearGradient
   id="linearGradient2955">
  <stop
     style="stop-color:white;stop-opacity:0;"
     offset="0"
     id="stop2965" />
  <stop
     style="stop-color:black;stop-opacity:0.64583331;"
     offset="1"
     id="stop2959" />
</linearGradient>
<radialGradient
   inkscape:collect="always"
   xlink:href="#linearGradient2893"
   id="radialGradient3236"
   gradientUnits="userSpaceOnUse"
   gradientTransform="matrix(1.215027,1.531577e-24,1.464684e-23,1.266667,-839.1924,-490.4894)"
   cx="858.04236"
   cy="579.93323"
   fx="858.04236"
   fy="579.93323"
   r="300" />
<inkscape:perspective
   id="perspective2585"
   inkscape:persp3d-origin="306 : 264 : 1"
   inkscape:vp_z="612 : 396 : 1"
   inkscape:vp_y="0 : 1000 : 0"
   inkscape:vp_x="0 : 396 : 1"
   sodipodi:type="inkscape:persp3d" />

	
	
	

	

		
			
		
			
		
			
	
		
		
		
	
		
		
		
	
			
			
		
			
			
			
			
			
			
			
			
			
			
			
				
			
			
			
			
			
		
			
			
		</defs>
  <sodipodi:namedview
     inkscape:window-height="884"
     inkscape:window-width="1162"
     inkscape:pageshadow="2"
     inkscape:pageopacity="0.0"
     guidetolerance="10.0"
     gridtolerance="10.0"
     objecttolerance="10.0"
     borderopacity="1.0"
     bordercolor="#666666"
     pagecolor="#ffffff"
     id="base"
     inkscape:zoom="0.60227829"
     inkscape:cx="294.65766"
     inkscape:cy="368.96263"
     inkscape:window-x="1304"
     inkscape:window-y="47"
     inkscape:current-layer="layer2"
     showgrid="false"
     showguides="true"
     inkscape:guide-bbox="true">
    <sodipodi:guide
       orientation="horizontal"
       position="761.5"
       id="guide1885" />
    <sodipodi:guide
       orientation="vertical"
       position="1.5"
       id="guide1887" />
    <sodipodi:guide
       orientation="horizontal"
       position="1.5"
       id="guide1889" />
    <sodipodi:guide
       orientation="vertical"
       position="601.5"
       id="guide1891" />
    <sodipodi:guide
       orientation="vertical"
       position="301.50081"
       id="guide1893" />
  </sodipodi:namedview>
  <desc
     id="desc22">Coat of Arms of Canton of Freiburg (Fribourg)</desc>
  <g
     inkscape:groupmode="layer"
     id="layer1"
     inkscape:label="Fond écu"
     style="opacity:1"
     sodipodi:insensitive="true">
    <path
       d="M 1.500003,1.634998 L 1.500003,460.503 C 1.500003,626.814 135.814,761.635 301.5,761.635 C 467.186,761.635 601.5,626.814 601.5,460.503 L 601.5,1.634998 L 1.500003,1.634998 z"
       id="path2592"
       style="opacity:1;fill:#2b5df2" />
  </g>
  <g
     inkscape:groupmode="layer"
     id="layer2"
     inkscape:label="Meubles"
     style="opacity:1"
     sodipodi:insensitive="true">
    <path
       style="fill:#5ab532;stroke:#000000;stroke-width:3;stroke-linecap:round;stroke-linejoin:round"
       d="M 175.99,642.534 C 157.125,642.534 147.5,657.933 147.5,674.103 C 147.5,690.273 167.52,761.499 301.5,761.499 L 211.795,653.699 C 211.795,653.699 201.016,642.534 175.99,642.534 z M 427.01,642.534 C 401.985,642.534 391.204,653.699 391.204,653.699 L 301.5,761.499 C 435.48,761.499 455.5,690.273 455.5,674.103 C 455.5,657.933 445.875,642.534 427.01,642.534 z"
       id="path2521" />
    <path
       style="fill:#5ab532;stroke:#000000;stroke-width:3;stroke-linecap:round;stroke-linejoin:round"
       d="M 237.59,619.819 C 215.644,619.819 206.79,644.46 206.79,664.48 C 206.79,699.129 250.68,761.5 301.5,761.5 L 274.165,638.3 C 274.165,638.299 259.535,619.819 237.59,619.819 z M 365.41,619.819 C 343.465,619.819 328.834,638.299 328.834,638.299 L 301.5,761.499 C 352.32,761.499 396.21,699.129 396.21,664.479 C 396.21,644.459 387.355,619.819 365.41,619.819 z"
       id="path2523" />
    <path
       style="fill:#5ab532;stroke:#000000;stroke-width:3;stroke-linecap:round;stroke-linejoin:round"
       d="M 301.5,605.959 C 269.93,605.959 259.92,646.769 259.92,674.104 C 259.92,718.38 294.186,761.5 301.5,761.5 C 308.814,761.5 343.08,718.381 343.08,674.104 C 343.08,646.769 333.069,605.959 301.5,605.959 z"
       id="path2525" />
    <path
       id="path2531"
       d="M 91.5,230.135 C 91.5,230.135 116.181,272.299 143,281.635 L 127.75,291.385 C 127.75,291.385 95.5,289.885 91.5,230.135 z"
       style="fill:#ffffff;stroke:#000000;stroke-width:3;stroke-linecap:round;stroke-linejoin:round" />
    <path
       id="path2533"
       d="M 164,280.214 C 140.536,239.148 119.833,229.635 119.833,229.635 C 120.604,252.192 128.958,270.288 135.864,281.537 C 135.864,281.537 125.666,285.468 118.833,292.301 C 115.875,295.259 114.579,301.818 108.25,309.884 C 101.875,318.009 97,328.884 95.5,337.884 C 94,346.884 95.949,360.398 89,377.384 C 86.75,382.884 81.5,390.884 88.75,394.884 C 88.75,394.884 93.5,417.634 100.25,417.634 C 104.25,417.634 105.813,414.884 105.813,414.884 C 105.813,414.884 112.501,421.634 120.834,414.884 C 129.167,408.134 126.695,392.204 135.334,382.467 C 142.553,374.332 156.703,375.492 166.522,366.613 C 166.522,366.613 179.501,378.884 192.501,410.134 C 205.501,441.384 206.276,435.465 208.418,444.717 C 208.921,446.892 209.824,450.195 211.182,454.155 C 211.182,454.155 178.751,466.384 158.751,474.134 C 138.751,481.884 140.501,488.634 142.501,501.634 C 144.501,514.634 164.418,581.218 170.834,587.635 C 177.25,594.052 193,599.469 193,599.469 C 197.667,604.135 204.5,605.635 204.5,605.635 L 203.333,582.802 L 192,581.302 C 182.667,581.302 184.333,576.136 184.333,576.136 C 184.333,576.136 181.625,577.51 177,575.26 C 172.375,573.01 166.25,533.885 163.375,516.76 C 160.5,499.635 169.375,497.385 173.125,497.385 C 189.018,497.385 212.5,497.385 224.5,496.635 C 236.5,495.885 232.5,490.635 232.5,490.635 C 247.625,505.76 245.5,525.135 244.25,528.635 C 243,532.135 250.75,543.885 253.75,557.635 C 256.75,571.385 258.25,580.635 254.75,587.135 C 252.797,590.762 248.644,597.382 244.816,604.275 C 241.783,609.736 237.615,615.369 236.25,619.819 C 236.25,619.819 249.766,621.385 260.875,621.385 L 259.5,609.885 C 259.5,609.885 264.5,593.385 271.875,597.51 C 271.875,597.51 270.25,562.135 273.75,530.385 C 275.363,515.752 277.188,504.146 277.563,494.465 C 277.563,494.465 332.167,499.636 356.834,490.302 C 375.334,483.301 377.709,478.551 379.428,476.614 C 379.428,476.614 380.001,506.635 405.251,528.885 C 405.251,528.885 394.763,543.811 384.501,572.885 C 381.501,581.385 380.752,586.302 374.835,590.135 C 370.961,592.645 360.191,597.444 351.44,607.406 C 348.395,611.219 345.579,617.585 343.392,626.128 L 371.313,623.698 L 371.751,620.569 L 371.751,612.385 C 371.751,612.385 385.251,592.885 390.501,602.635 C 390.501,602.635 403.001,571.885 414.501,554.385 C 426.001,536.885 430.584,533.636 430.584,531.469 C 430.584,529.302 423.077,513.694 426.376,472.885 C 426.376,472.885 434.168,506.978 452.251,526.135 C 454.193,528.193 450.938,534.037 455.335,539.926 C 456.013,540.834 459.799,567.801 453.876,582.385 C 446.694,600.068 432.972,613.653 423.24,628.833 C 420.267,633.47 415.386,638.646 413.459,643.742 C 413.459,643.742 418.667,649.634 443.334,651.301 L 444.667,639.968 C 444.667,639.968 446.835,610.135 462.501,622.135 C 462.501,622.135 469.477,577.659 480.168,548.635 C 482.978,541.009 485.001,538.301 480.334,533.635 C 475.667,528.969 464.5,514.385 478.5,485.135 C 492.5,455.885 495.501,420.302 492.167,397.302 C 492.167,397.302 507.167,413.968 507.167,450.635 C 507.167,487.302 494.167,491.512 494.167,512.302 C 494.167,526.135 501.25,550.385 506.75,560.885 C 506.75,560.885 520.25,538.385 520.25,512.302 C 520.25,486.219 515.25,484.135 515.25,450.885 C 515.25,429.649 512.893,393.027 488.994,375.637 C 477.544,363.729 461.541,355.635 439.5,355.635 C 389,355.635 371.102,370.796 325,365.635 C 291.5,361.885 272.5,351.385 272.5,351.385 C 272.5,351.385 206.501,295.459 164,280.214 z"
       style="fill:#ffffff;stroke:#000000;stroke-width:3;stroke-linecap:round;stroke-linejoin:round" />
    <path
       id="path2537"
       d="M 105.813,414.885 C 105.813,414.885 106.834,407.801 111.167,400.968"
       style="fill:none;stroke:#000000;stroke-width:3;stroke-linecap:round;stroke-linejoin:round" />
    <path
       id="path2539"
       d="M 166.521,366.614 C 170.984,362.578 174.552,356.468 176.167,346.468"
       style="fill:none;stroke:#000000;stroke-width:3;stroke-linecap:round;stroke-linejoin:round" />
    <path
       id="path2541"
       d="M 145.167,294.302 C 145.167,294.302 140.9,289.739 135.865,281.538"
       style="fill:none;stroke:#000000;stroke-width:3;stroke-linecap:round;stroke-linejoin:round" />
    <path
       id="path2543"
       d="M 211.181,454.156 C 214.767,464.616 221.529,479.664 232.5,490.635"
       style="fill:none;stroke:#000000;stroke-width:3;stroke-linecap:round;stroke-linejoin:round" />
    <path
       id="path2545"
       d="M 193,599.469 C 193,599.469 194,590.136 192,581.302"
       style="fill:none;stroke:#000000;stroke-width:3;stroke-linecap:round;stroke-linejoin:round" />
    <path
       id="path2547"
       d="M 259.5,609.885 C 259.5,609.885 248.466,610.581 244.816,604.275"
       style="fill:none;stroke:#000000;stroke-width:3;stroke-linecap:round;stroke-linejoin:round" />
    <path
       id="path2549"
       d="M 379.427,476.614 C 380,475.968 380.5,475.635 381.5,475.635 C 385.5,475.635 401.5,481.135 426.375,472.885"
       style="fill:none;stroke:#000000;stroke-width:3;stroke-linecap:round;stroke-linejoin:round" />
    <path
       id="path2551"
       d="M 270.25,466.635 C 276.45,474.452 278,483.142 277.563,494.465"
       style="fill:none;stroke:#000000;stroke-width:3;stroke-linecap:round;stroke-linejoin:round" />
    <path
       id="path2553"
       d="M 426.375,472.885 C 427.5,458.969 416.166,447.301 409.833,443.135"
       style="fill:none;stroke:#000000;stroke-width:3;stroke-linecap:round;stroke-linejoin:round" />
    <path
       id="path2555"
       d="M 170.5,292.302 C 168.319,287.997 166.148,283.973 164,280.214"
       style="fill:none;stroke:#000000;stroke-width:3;stroke-linecap:round;stroke-linejoin:round" />
    <line
       id="line2557"
       y2="274.96802"
       x2="144.16701"
       y1="250.96799"
       x1="129.83299"
       style="fill:none;stroke:#000000;stroke-width:3;stroke-linecap:round;stroke-linejoin:round" />
    <path
       id="path2559"
       d="M 351.503,607.337 C 351.503,607.337 352,612.385 371.75,612.385"
       style="fill:none;stroke:#000000;stroke-width:3;stroke-linecap:round;stroke-linejoin:round" />
    <path
       id="path2561"
       d="M 444.666,639.968 C 444.666,639.968 426.433,638.189 423.3,628.745"
       style="fill:none;stroke:#000000;stroke-width:3;stroke-linecap:round;stroke-linejoin:round" />
    <path
       id="path2563"
       d="M 110.833,356.968 C 110.833,356.968 112.333,346.801 116.5,340.135 C 120.667,333.469 127,333.635 128.167,330.135"
       style="fill:none;stroke:#000000;stroke-width:3;stroke-linecap:round;stroke-linejoin:round" />
    <path
       id="path2565"
       d="M 130.833,343.802 C 130.833,343.802 127.833,341.969 124.833,341.969 C 121.833,341.969 117.988,340.778 117.988,338.124"
       style="fill:none;stroke:#000000;stroke-width:3;stroke-linecap:round;stroke-linejoin:round" />
    <path
       id="path2567"
       d="M 113.552,346.397 C 113.552,346.397 116.927,342.423 121.922,341.612"
       style="fill:none;stroke:#000000;stroke-width:3;stroke-linecap:round;stroke-linejoin:round" />
    <path
       id="path2571"
       d="M 164,280.214 C 206.5,295.459 272.5,351.385 272.5,351.385 C 272.5,351.385 273.124,351.728 274.324,352.306 C 228.888,285.884 175.003,272.12 157.391,269.329 C 159.56,272.686 161.767,276.305 164,280.214 z" />
    <ellipse
       id="ellipse2573"
       ry="5.4369998"
       rx="3.063"
       cy="343.68799"
       cx="119.688"
       transform="matrix(0.8769,-0.4807,0.4807,0.8769,-150.4737,99.98)"
       sodipodi:cx="119.688"
       sodipodi:cy="343.68799"
       sodipodi:rx="3.063"
       sodipodi:ry="5.4369998" />
    <polygon
       style="fill:#fcef3c;stroke:#000000;stroke-width:2.79999995;stroke-linecap:round;stroke-linejoin:round"
       id="polygon2492_8_"
       points="106.039,136.191 155.245,136.191 115.437,165.112 130.643,211.91 90.834,182.988 51.026,211.91 66.229,165.112 26.425,136.191 75.629,136.191 90.834,89.393 106.039,136.191 "
       transform="translate(3e-6,0.134998)" />
    <polygon
       style="fill:#fcef3c;stroke:#000000;stroke-width:2.79999995;stroke-linecap:round;stroke-linejoin:round"
       id="polygon2492"
       points="301.5,44.726 316.705,91.525 365.909,91.525 326.104,120.446 341.308,167.243 301.5,138.321 261.691,167.243 276.897,120.446 237.089,91.525 286.295,91.525 301.5,44.726 "
       transform="translate(3e-6,0.134998)" />
    <polygon
       style="fill:#fcef3c;stroke:#000000;stroke-width:2.79999995;stroke-linecap:round;stroke-linejoin:round"
       id="polygon2492_7_"
       points="512.166,89.393 527.371,136.191 576.575,136.191 536.771,165.112 551.974,211.91 512.166,182.988 472.357,211.91 487.563,165.112 447.755,136.191 496.961,136.191 512.166,89.393 "
       transform="translate(3e-6,0.134998)" />
  </g>
  <g
     inkscape:groupmode="layer"
     id="layer3"
     inkscape:label="Reflet final"
     style="display:inline"
     sodipodi:insensitive="true">
    <path
       style="fill:url(#radialGradient3236);fill-opacity:1"
       d="M 1.5,1.5 L 1.5,460.3679 C 1.5,626.67854 135.81454,761.5 301.49993,761.5 C 467.1854,761.5 601.5,626.67854 601.5,460.3679 L 601.5,1.5 L 1.5,1.5 z "
       id="path2346" />
  </g>
  <g
     inkscape:groupmode="layer"
     id="layer4"
     inkscape:label="Contour final"
     style="display:inline"
     sodipodi:insensitive="true">
    <path
       style="fill:none;fill-opacity:1;stroke:#000000;stroke-width:3;stroke-miterlimit:4;stroke-dasharray:none;stroke-opacity:1"
       d="M 1.5,1.5 L 1.5,460.36794 C 1.5,626.67854 135.81454,761.5 301.49993,761.5 C 467.1854,761.5 601.5,626.67854 601.5,460.36794 L 601.5,1.5 L 1.5,1.5 z "
       id="path3239" />
  </g>
</svg>
